X: 19801
T: Jerome Burke's
R: polka
M: 2/4
K: Dmajor
|:D2 FA|dA AA|BE EF|GA/G/ FE|
D2 FA|dA/A/ AA|BA Bc|1 d2 d2:|2 d2 de||
|:f2 ff|af ed|e>e ee|fe ce|
f>g ff|af ed|eA Bc|d2 d2:|

